X:251
T:Le Fete de Village
C:Fan for the year 1789, Ashmolean Museum
N:For the dance "Champagne" by Jenna Simpson
S:Colin Hume's website,  colinhume.com  - chords can also be printed below the stave.
Q:1/4=112
M:2/4
L:1/16
K:E
P:A
|: "E"b4 agfg | "A"a2g2 "B7"f4 | "E"g2e2 d2e2 | "B7"fedc B4 |\
"E"b4 agfg | "A"a2g2 "B7"f4 | "E"g2b2 "B7"e2fd | "E"e4 e4 :|
P:B
|: "E"GBeB "A"Acec | "E"GBeB "A"Acec | "E"e2b2 a2g2 | "B7"fefg f4 |\
"E"GBeB "A"Acec | "E"GBeB "A"Acec | "E"e2g2 "B7"f2b2 | "E"e4 e4 :|

